X: 20431
T: John Grumlie
R: jig
M: 6/8
K: Dmajor
|:F2A A2B|ABc d2e|fed g2f|f3 e2A|
F2A A2B|ABc d2e|fga gfe|1 d4dA:|2 d4de||
|:fef def|g2f e2d|dAd g2f|f3 e2A|
F2A A2B|ABc d2e|fga gfe|1 d4de:|2 d6||

